; generated by PrusaSlicer 2.3.3 on 2021-09-20 at 14:49:04 UTC


;
;

;
;
; 

; external perimeters extrusion width = 0.45mm
; perimeters extrusion width = 0.45mm
; infill extrusion width = 0.45mm
; solid infill extrusion width = 0.45mm
; top infill extrusion width = 0.40mm
; first layer extrusion width = 0.42mm

M73 P0 R175
M201 X1250 Y1250 Z400 E5000 ; sets maximum accelerations, mm/sec^2
M203 X180 Y180 Z12 E80 ; sets maximum feedrates, mm/sec
M204 P1250 R1250 T1250 ; sets acceleration (P, T) and retract acceleration (R), mm/sec^2
M205 X8.00 Y8.00 Z2.00 E10.00 ; sets the jerk limits, mm/sec
M205 S0 T0 ; sets the minimum extruding and travel feed rate, mm/sec
M107
;TYPE:Custom
G90 ; use absolute coordinates
M83 ; extruder relative mode
M104 S170 ; set extruder temp for bed leveling
M140 S60 ; set bed temp
M109 R170 ; wait for bed leveling temp
M190 S60 ; wait for bed temp
G28 ; home all without mesh bed level
G29 ; mesh bed leveling 
M104 S215 ; set extruder temp
G92 E0.0
G1 Y-2.0 X179 F2400
G1 Z3 F720
M109 S215 ; wait for extruder temp

; intro line
G1 X170 F1000
G1 Z0.2 F720
G1 X110.0 E8.0 F900
G1 X40.0 E10.0 F700
G92 E0.0

M221 S95 ; set flow
G21 ; set units to millimeters
G90 ; use absolute coordinates
M83 ; use relative distances for extrusion
M900 K0.2 ; Filament gcode LA 1.5
; ; Filament gcode LA 1.0
;LAYER_CHANGE
;Z:0.2
;HEIGHT:0.2
;BEFORE_LAYER_CHANGE
G92 E0.0
;0.2


G1 E-3.20000 F4200.000
G1 Z0.200 F9000.000
;AFTER_LAYER_CHANGE
;0.2
G1 Z0.400
G1 X16.033 Y16.632
G1 Z0.200
G1 E3.20000 F2400.000
M204 S800
;TYPE:Skirt
;WIDTH:0.42
G1 F1200.000
G1 X16.407 Y15.946 E0.02449
G1 X16.776 Y15.568 E0.01657
G1 X17.220 Y15.282 E0.01657
G1 X17.716 Y15.100 E0.01657
G1 X18.240 Y15.033 E0.01657
G1 X71.923 Y15.033 E1.68319
G1 X72.755 Y15.184 E0.02649
G1 X73.477 Y15.614 E0.02637
G1 X163.009 Y93.874 E3.72847
G1 X163.485 Y94.446 E0.02331
G1 X163.732 Y95.026 E0.01977
G1 X163.819 Y95.650 E0.01977
G1 X163.819 Y165.460 E2.18884
G1 X163.735 Y166.058 E0.01894
G1 X163.502 Y166.619 E0.01906
G1 X163.134 Y167.103 E0.01906
G1 X162.658 Y167.475 E0.01894
G1 X162.072 Y167.725 E0.02000
G1 X161.442 Y167.810 E0.01992
G1 X105.771 Y167.810 E1.74554
G1 X105.179 Y167.733 E0.01870
G1 X104.629 Y167.512 E0.01858
G1 X104.175 Y167.185 E0.01755
G1 X16.673 Y86.913 E3.72315
G1 X16.237 Y86.377 E0.02166
G1 X15.989 Y85.797 E0.01977
G1 X15.902 Y85.173 E0.01977
G1 X15.902 Y17.402 E2.12491
G1 X16.023 Y16.691 E0.02261
M204 S1250
; printing object case.obj_1 id:0 copy 0
G1 E-2.24000 F4200.000
;WIPE_START
G1 F7200.000
G1 X16.407 Y15.946 E-0.46444
G1 X16.776 Y15.568 E-0.29280
G1 X17.011 Y15.417 E-0.15476
;WIPE_END
G1 E-0.04800 F4200.000
G1 Z0.400 F9000.000
G1 X40.956 Y40.189
G1 Z0.200
G1 E3.20000 F2400.000
M204 S800
;TYPE:Perimeter
G1 F1200.000
G1 X41.379 Y39.796 E0.01809
G1 X41.839 Y39.448 E0.01809
G1 X42.331 Y39.147 E0.01809
G1 X42.851 Y38.896 E0.01809
G1 X43.394 Y38.699 E0.01809
G1 X43.953 Y38.557 E0.01809
G1 X44.518 Y38.472 E0.01791
G1 X44.855 Y38.448 E0.01059
G1 X45.389 Y38.449 E0.01674
G1 X45.962 Y38.507 E0.01808
G1 X46.528 Y38.621 E0.01809
G1 X47.079 Y38.791 E0.01809
G1 X47.611 Y39.015 E0.01809
G1 X48.118 Y39.291 E0.01809
G1 X48.594 Y39.616 E0.01809
G1 X49.036 Y39.987 E0.01809
G1 X49.439 Y40.400 E0.01809
G1 X49.799 Y40.851 E0.01809
G1 X50.112 Y41.336 E0.01809
G1 X50.375 Y41.849 E0.01809
G1 X50.586 Y42.386 E0.01809
G1 X50.742 Y42.942 E0.01809
G1 X50.842 Y43.510 E0.01809
G1 X50.886 Y44.086 E0.01809
G1 X50.871 Y44.662 E0.01809
G1 X50.799 Y45.235 E0.01809
G1 X50.671 Y45.797 E0.01809
G1 X50.490 Y46.337 E0.01786
G1 X50.372 Y46.617 E0.00951
G1 X50.112 Y47.124 E0.01786
G1 X49.799 Y47.608 E0.01809
G1 X49.439 Y48.060 E0.01809
G1 X49.036 Y48.473 E0.01809
G1 X48.594 Y48.844 E0.01809
G1 X48.118 Y49.169 E0.01809
G1 X47.611 Y49.445 E0.01809
G1 X47.079 Y49.669 E0.01809
G1 X46.528 Y49.839 E0.01809
G1 X45.962 Y49.953 E0.01809
G1 X45.388 Y50.011 E0.01809
G1 X44.811 Y50.011 E0.01809
G1 X44.237 Y49.953 E0.01809
G1 X43.671 Y49.839 E0.01809
G1 X43.120 Y49.669 E0.01809
G1 X42.588 Y49.445 E0.01809
G1 X42.082 Y49.169 E0.01809
G1 X41.605 Y48.844 E0.01809
G1 X41.163 Y48.473 E0.01809
G1 X40.760 Y48.060 E0.01809
G1 X40.400 Y47.608 E0.01809
G1 X40.087 Y47.124 E0.01809
G1 X39.824 Y46.610 E0.01809
G1 X39.613 Y46.073 E0.01809
G1 X39.457 Y45.518 E0.01809
G1 X39.357 Y44.950 E0.01809
G1 X39.313 Y44.374 E0.01809
G1 X39.328 Y43.797 E0.01809
G1 X39.400 Y43.225 E0.01809
G1 X39.528 Y42.662 E0.01809
G1 X39.712 Y42.115 E0.01809
G1 X39.949 Y41.589 E0.01809
G1 X40.238 Y41.090 E0.01809
G1 X40.574 Y40.621 E0.01809
G1 X40.916 Y40.234 E0.01621
M204 S1250
G1 X41.199 Y40.483 F9000.000
M204 S800
;TYPE:External perimeter
G1 F1200.000
G1 X41.622 Y40.085 E0.01820
G1 X42.052 Y39.760 E0.01691
G1 X42.512 Y39.478 E0.01691
G1 X42.998 Y39.244 E0.01691
G1 X43.505 Y39.060 E0.01691
G1 X44.027 Y38.927 E0.01691
G1 X44.559 Y38.847 E0.01685
G1 X44.867 Y38.825 E0.00969
G1 X45.369 Y38.826 E0.01575
G1 X45.906 Y38.880 E0.01691
G1 X46.435 Y38.987 E0.01691
G1 X46.950 Y39.146 E0.01691
G1 X47.447 Y39.355 E0.01691
G1 X47.921 Y39.613 E0.01691
G1 X48.366 Y39.917 E0.01691
G1 X48.779 Y40.264 E0.01691
G1 X49.156 Y40.650 E0.01691
G1 X49.492 Y41.072 E0.01691
G1 X49.785 Y41.525 E0.01691
G1 X50.031 Y42.005 E0.01691
G1 X50.228 Y42.507 E0.01691
G1 X50.374 Y43.026 E0.01691
G1 X50.468 Y43.557 E0.01691
G1 X50.508 Y44.095 E0.01691
G1 X50.495 Y44.634 E0.01691
G1 X50.428 Y45.169 E0.01691
G1 X50.308 Y45.695 E0.01691
G1 X50.137 Y46.204 E0.01683
G1 X50.030 Y46.457 E0.00862
G1 X49.785 Y46.935 E0.01683
G1 X49.492 Y47.388 E0.01691
G1 X49.156 Y47.810 E0.01691
G1 X48.779 Y48.196 E0.01691
G1 X48.366 Y48.543 E0.01691
G1 X47.921 Y48.846 E0.01691
G1 X47.447 Y49.104 E0.01691
G1 X46.950 Y49.314 E0.01691
G1 X46.435 Y49.473 E0.01691
G1 X45.906 Y49.580 E0.01691
G1 X45.369 Y49.633 E0.01691
G1 X44.830 Y49.633 E0.01691
G1 X44.293 Y49.580 E0.01691
G1 X43.764 Y49.473 E0.01691
G1 X43.249 Y49.314 E0.01691
G1 X42.752 Y49.104 E0.01691
G1 X42.278 Y48.846 E0.01691
G1 X41.833 Y48.543 E0.01691
G1 X41.420 Y48.196 E0.01691
G1 X41.043 Y47.810 E0.01691
G1 X40.707 Y47.388 E0.01691
G1 X40.414 Y46.935 E0.01691
G1 X40.168 Y46.455 E0.01691
G1 X39.971 Y45.953 E0.01691
G1 X39.825 Y45.434 E0.01691
G1 X39.731 Y44.903 E0.01691
G1 X39.691 Y44.365 E0.01691
G1 X39.704 Y43.826 E0.01691
G1 X39.771 Y43.290 E0.01691
G1 X39.891 Y42.765 E0.01691
G1 X40.063 Y42.253 E0.01691
G1 X40.285 Y41.762 E0.01691
G1 X40.555 Y41.294 E0.01691
G1 X40.870 Y40.857 E0.01691
G1 X41.160 Y40.528 E0.01374
M204 S1250
G1 X41.089 Y40.099 F9000.000
G1 E-2.24000 F4200.000
;WIPE_START
G1 F7200.000
G1 X41.622 Y40.085 E-0.35473
G1 X42.052 Y39.760 E-0.29890
G1 X42.450 Y39.517 E-0.25837
;WIPE_END
G1 E-0.04800 F4200.000
G1 Z0.400 F9000.000
G1 X40.937 Y73.109
G1 Z0.200
G1 E3.20000 F2400.000
M204 S800
;TYPE:Perimeter
G1 F1200.000
G1 X49.262 Y73.109 E0.26100
G1 X49.262 Y81.433 E0.26100
G1 X40.937 Y81.433 E0.26100
G1 X40.937 Y73.169 E0.25912
M204 S1250
G1 X41.315 Y73.486 F9000.000
M204 S800
;TYPE:External perimeter
G1 F1200.000
G1 X48.885 Y73.486 E0.23735
G1 X48.885 Y81.056 E0.23735
G1 X41.315 Y81.056 E0.23735
G1 X41.315 Y73.546 E0.23547
M204 S1250
G1 X41.211 Y73.099 F9000.000
G1 E-2.24000 F4200.000
;WIPE_START
G1 F7200.000
G1 X42.960 Y73.533 E-0.91200
;WIPE_END
G1 E-0.04800 F4200.000
G1 Z0.400 F9000.000
G1 X19.067 Y84.374
G1 Z0.200
G1 E3.20000 F2400.000
M204 S800
;TYPE:Perimeter
G1 F1200.000
G1 X19.067 Y18.197 E2.07495
G1 X71.132 Y18.197 E1.63249
M73 P0 R174
G1 X71.132 Y84.374 E2.07495
G1 X19.127 Y84.374 E1.63061
M204 S1250
G1 X18.690 Y84.752 F9000.000
M204 S800
;TYPE:External perimeter
G1 F1200.000
G1 X18.690 Y17.820 E2.09860
G1 X71.510 Y17.820 E1.65613
G1 X71.510 Y84.752 E2.09860
G1 X18.750 Y84.752 E1.65425
M204 S1250
G1 X18.778 Y84.361 F9000.000
G1 E-2.24000 F4200.000
;WIPE_START
G1 F7200.000
G1 X18.748 Y83.106 E-0.91200
;WIPE_END
G1 E-0.04800 F4200.000
G1 Z0.400 F9000.000
G1 X71.019 Y19.072
G1 Z0.200
G1 E3.20000 F2400.000
M204 S800
;TYPE:Solid infill
;WIDTH:0.420042
G1 F1200.000
G1 X70.427 Y18.480 E0.02628
G1 X69.893 Y18.480 E0.01672
G1 X70.850 Y19.436 E0.04241
G1 X70.850 Y19.969 E0.01672
G1 X69.360 Y18.480 E0.06606
G1 X68.827 Y18.480 E0.01672
G1 X70.850 Y20.503 E0.08971
G1 X70.850 Y21.036 E0.01672
G1 X68.293 Y18.480 E0.11336
G1 X67.760 Y18.480 E0.01672
G1 X70.850 Y21.569 E0.13702
G1 X70.850 Y22.103 E0.01672
G1 X67.227 Y18.480 E0.16067
G1 X66.693 Y18.480 E0.01672
G1 X70.850 Y22.636 E0.18432
G1 X70.850 Y23.169 E0.01672
G1 X66.160 Y18.480 E0.20797
G1 X65.627 Y18.480 E0.01672
G1 X70.850 Y23.703 E0.23162
G1 X70.850 Y24.236 E0.01672
G1 X65.093 Y18.480 E0.25527
G1 X64.560 Y18.480 E0.01672
G1 X70.850 Y24.769 E0.27892
G1 X70.850 Y25.303 E0.01672
G1 X64.027 Y18.480 E0.30258
G1 X63.493 Y18.480 E0.01672
G1 X70.850 Y25.836 E0.32623
G1 X70.850 Y26.369 E0.01672
G1 X62.960 Y18.480 E0.34988
G1 X62.427 Y18.480 E0.01672
G1 X70.850 Y26.903 E0.37353
G1 X70.850 Y27.436 E0.01672
G1 X61.893 Y18.480 E0.39718
G1 X61.360 Y18.480 E0.01672
G1 X70.850 Y27.969 E0.42083
G1 X70.850 Y28.503 E0.01672
G1 X60.827 Y18.480 E0.44448
G1 X60.293 Y18.480 E0.01672
G1 X70.850 Y29.036 E0.46814
G1 X70.850 Y29.569 E0.01672
G1 X59.760 Y18.480 E0.49179
G1 X59.227 Y18.480 E0.01672
G1 X70.850 Y30.103 E0.51544
G1 X70.850 Y30.636 E0.01672
G1 X58.693 Y18.480 E0.53909
G1 X58.160 Y18.480 E0.01672
G1 X70.850 Y31.169 E0.56274
G1 X70.850 Y31.703 E0.01672
G1 X57.627 Y18.480 E0.58639
G1 X57.093 Y18.480 E0.01672
G1 X70.850 Y32.236 E0.61004
G1 X70.850 Y32.769 E0.01672
G1 X56.560 Y18.480 E0.63370
G1 X56.027 Y18.480 E0.01672
G1 X70.850 Y33.303 E0.65735
G1 X70.850 Y33.836 E0.01672
G1 X55.493 Y18.480 E0.68100
G1 X54.960 Y18.480 E0.01672
G1 X70.850 Y34.369 E0.70465
G1 X70.850 Y34.903 E0.01672
G1 X54.427 Y18.480 E0.72830
G1 X53.893 Y18.480 E0.01672
G1 X70.850 Y35.436 E0.75195
G1 X70.850 Y35.969 E0.01672
G1 X53.360 Y18.480 E0.77560
G1 X52.827 Y18.480 E0.01672
G1 X70.850 Y36.503 E0.79926
G1 X70.850 Y37.036 E0.01672
G1 X52.293 Y18.480 E0.82291
G1 X51.760 Y18.480 E0.01672
G1 X70.850 Y37.569 E0.84656
G1 X70.850 Y38.103 E0.01672
G1 X51.227 Y18.480 E0.87021
G1 X50.693 Y18.480 E0.01672
G1 X70.850 Y38.636 E0.89386
G1 X70.850 Y39.169 E0.01672
G1 X50.160 Y18.480 E0.91751
M73 P1 R174
G1 X49.627 Y18.480 E0.01672
G1 X70.850 Y39.703 E0.94116
G1 X70.850 Y40.236 E0.01672
G1 X49.093 Y18.480 E0.96482
G1 X48.560 Y18.480 E0.01672
G1 X70.850 Y40.769 E0.98847
G1 X70.850 Y41.303 E0.01672
G1 X48.027 Y18.480 E1.01212
G1 X47.493 Y18.480 E0.01672
G1 X70.850 Y41.836 E1.03577
G1 X70.850 Y42.369 E0.01672
G1 X46.960 Y18.480 E1.05942
G1 X46.427 Y18.480 E0.01672
G1 X70.850 Y42.903 E1.08307
M73 P1 R173
G1 X70.850 Y43.436 E0.01672
G1 X45.893 Y18.480 E1.10672
G1 X45.360 Y18.480 E0.01672
G1 X70.850 Y43.969 E1.13038
G1 X70.850 Y44.503 E0.01672
G1 X44.827 Y18.480 E1.15403
G1 X44.293 Y18.480 E0.01672
G1 X70.850 Y45.036 E1.17768
G1 X70.850 Y45.569 E0.01672
G1 X43.760 Y18.480 E1.20133
G1 X43.227 Y18.480 E0.01672
G1 X70.850 Y46.103 E1.22498
G1 X70.850 Y46.636 E0.01672
G1 X42.693 Y18.480 E1.24863
G1 X42.160 Y18.480 E0.01672
G1 X70.850 Y47.169 E1.27229
G1 X70.850 Y47.703 E0.01672
G1 X41.627 Y18.480 E1.29594
G1 X41.093 Y18.480 E0.01672
G1 X70.850 Y48.236 E1.31959
G1 X70.850 Y48.769 E0.01672
G1 X40.560 Y18.480 E1.34324
G1 X40.027 Y18.480 E0.01672
G1 X70.850 Y49.303 E1.36689
G1 X70.850 Y49.836 E0.01672
G1 X39.493 Y18.480 E1.39054
G1 X38.960 Y18.480 E0.01672
G1 X70.850 Y50.369 E1.41419
G1 X70.850 Y50.903 E0.01672
G1 X38.427 Y18.480 E1.43785
G1 X37.893 Y18.480 E0.01672
G1 X70.850 Y51.436 E1.46150
G1 X70.850 Y51.969 E0.01672
G1 X37.360 Y18.480 E1.48515
G1 X36.827 Y18.480 E0.01672
G1 X70.850 Y52.503 E1.50880
G1 X70.850 Y53.036 E0.01672
G1 X36.293 Y18.480 E1.53245
G1 X35.760 Y18.480 E0.01672
G1 X70.850 Y53.569 E1.55610
G1 X70.850 Y54.103 E0.01672
G1 X35.227 Y18.480 E1.57975
G1 X34.693 Y18.480 E0.01672
G1 X70.850 Y54.636 E1.60341
G1 X70.850 Y55.169 E0.01672
G1 X34.160 Y18.480 E1.62706
G1 X33.627 Y18.480 E0.01672
G1 X70.850 Y55.703 E1.65071
G1 X70.850 Y56.236 E0.01672
G1 X33.093 Y18.480 E1.67436
G1 X32.560 Y18.480 E0.01672
G1 X70.850 Y56.769 E1.69801
M73 P1 R172
G1 X70.850 Y57.303 E0.01672
G1 X32.027 Y18.480 E1.72166
G1 X31.493 Y18.480 E0.01672
G1 X70.850 Y57.836 E1.74531
G1 X70.850 Y58.369 E0.01672
G1 X30.960 Y18.480 E1.76897
G1 X30.427 Y18.480 E0.01672
G1 X70.850 Y58.903 E1.79262
G1 X70.850 Y59.436 E0.01672
G1 X29.894 Y18.480 E1.81627
G1 X29.360 Y18.480 E0.01672
G1 X70.850 Y59.969 E1.83992
G1 X70.850 Y60.503 E0.01672
G1 X28.827 Y18.480 E1.86357
G1 X28.294 Y18.480 E0.01672
G1 X70.850 Y61.036 E1.88722
G1 X70.850 Y61.569 E0.01672
G1 X27.760 Y18.480 E1.91087
G1 X27.227 Y18.480 E0.01672
G1 X47.342 Y38.595 E0.89205
G1 X47.176 Y38.525 E0.00566
G1 X46.551 Y38.337 E0.02047
G1 X26.694 Y18.480 E0.88061
G1 X26.160 Y18.480 E0.01672
G1 X45.896 Y38.216 E0.87523
G1 X45.313 Y38.166 E0.01834
G1 X25.627 Y18.480 E0.87303
G1 X25.094 Y18.480 E0.01672
G1 X44.784 Y38.170 E0.87319
G1 X44.299 Y38.219 E0.01527
G1 X24.560 Y18.480 E0.87535
M73 P2 R172
G1 X24.027 Y18.480 E0.01672
G1 X43.841 Y38.293 E0.87867
G1 X43.416 Y38.402 E0.01376
G1 X23.494 Y18.480 E0.88347
G1 X22.960 Y18.480 E0.01672
G1 X43.016 Y38.536 E0.88941
G1 X42.634 Y38.687 E0.01288
G1 X22.427 Y18.480 E0.89613
G1 X21.894 Y18.480 E0.01672
G1 X42.274 Y38.860 E0.90382
G1 X41.937 Y39.056 E0.01223
G1 X21.360 Y18.480 E0.91251
G1 X20.827 Y18.480 E0.01672
G1 X41.612 Y39.265 E0.92175
G1 X41.309 Y39.495 E0.01194
G1 X20.294 Y18.480 E0.93195
G1 X19.760 Y18.480 E0.01672
G1 X41.022 Y39.742 E0.94289
G1 X40.746 Y39.999 E0.01183
G1 X19.349 Y18.602 E0.94888
G1 X19.349 Y19.136 E0.01672
G1 X40.496 Y40.282 E0.93779
G1 X40.258 Y40.577 E0.01189
G1 X19.349 Y19.669 E0.92721
G1 X19.349 Y20.202 E0.01672
G1 X40.035 Y40.887 E0.91732
G1 X39.835 Y41.221 E0.01219
G1 X19.349 Y20.736 E0.90847
G1 X19.349 Y21.269 E0.01672
G1 X39.648 Y41.568 E0.90020
G1 X39.483 Y41.935 E0.01264
G1 X19.349 Y21.802 E0.89284
G1 X19.349 Y22.336 E0.01672
G1 X39.342 Y42.328 E0.88660
M73 P2 R171
G1 X39.220 Y42.740 E0.01346
G1 X19.349 Y22.869 E0.88120
G1 X19.349 Y23.402 E0.01672
G1 X39.121 Y43.174 E0.87681
G1 X39.062 Y43.648 E0.01497
G1 X19.349 Y23.936 E0.87417
G1 X19.349 Y24.469 E0.01672
G1 X39.036 Y44.156 E0.87304
G1 X39.030 Y44.381 E0.00708
G1 X39.055 Y44.708 E0.01027
G1 X19.349 Y25.002 E0.87387
G1 X19.349 Y25.536 E0.01672
G1 X39.135 Y45.321 E0.87742
G1 X39.181 Y45.581 E0.00827
G1 X39.306 Y46.025 E0.01448
G1 X19.180 Y25.899 E0.89252
M204 S1250
G1 E-2.24000 F4200.000
;WIPE_START
G1 F7200.000
G1 X20.343 Y27.063 E-0.91200
;WIPE_END
G1 E-0.04800 F4200.000
G1 Z0.400 F9000.000
G1 X71.019 Y62.272
G1 Z0.200
G1 E3.20000 F2400.000
M204 S800
G1 F1200.000
G1 X50.732 Y41.985 E0.89966
G1 X50.854 Y42.296 E0.01048
G1 X50.989 Y42.775 E0.01561
G1 X70.850 Y62.636 E0.88074
G1 X70.850 Y63.169 E0.01672
G1 X51.117 Y43.436 E0.87510
G1 X51.164 Y44.017 E0.01827
G1 X70.850 Y63.703 E0.87299
G1 X70.850 Y64.236 E0.01672
G1 X51.157 Y44.543 E0.87330
G1 X51.110 Y45.030 E0.01532
G1 X70.850 Y64.769 E0.87538
G1 X70.850 Y65.303 E0.01672
G1 X51.032 Y45.485 E0.87883
G1 X50.930 Y45.916 E0.01388
G1 X70.850 Y65.836 E0.88339
G1 X70.850 Y66.369 E0.01672
G1 X50.796 Y46.315 E0.88933
G1 X50.645 Y46.698 E0.01289
G1 X70.850 Y66.903 E0.89602
G1 X70.850 Y67.436 E0.01672
G1 X50.466 Y47.052 E0.90393
G1 X50.274 Y47.394 E0.01228
G1 X70.850 Y67.969 E0.91245
G1 X70.850 Y68.502 E0.01672
G1 X50.065 Y47.718 E0.92173
G1 X49.833 Y48.019 E0.01193
G1 X70.850 Y69.036 E0.93202
G1 X70.850 Y69.569 E0.01672
G1 X49.590 Y48.310 E0.94278
G1 X49.327 Y48.580 E0.01183
G1 X70.850 Y70.102 E0.95446
G1 X70.850 Y70.636 E0.01672
G1 X49.047 Y48.833 E0.96688
G1 X48.756 Y49.076 E0.01187
G1 X70.850 Y71.169 E0.97978
G1 X70.850 Y71.702 E0.01672
G1 X48.439 Y49.292 E0.99384
G1 X48.109 Y49.495 E0.01215
G1 X70.850 Y72.236 E1.00847
G1 X70.850 Y72.769 E0.01672
G1 X47.764 Y49.683 E1.02378
G1 X47.391 Y49.844 E0.01272
G1 X70.850 Y73.302 E1.04030
G1 X70.850 Y73.836 E0.01672
G1 X47.002 Y49.988 E1.05756
G1 X46.594 Y50.114 E0.01338
G1 X70.850 Y74.369 E1.07564
G1 X70.850 Y74.902 E0.01672
G1 X46.151 Y50.203 E1.09532
G1 X45.679 Y50.266 E0.01490
G1 X70.850 Y75.436 E1.11622
G1 X70.850 Y75.969 E0.01672
G1 X45.174 Y50.293 E1.13864
G1 X44.623 Y50.276 E0.01728
